src/actions/22/text-flow-into-frame.svg

<svg viewBox="0 0 22 22" xmlns="http://www.w3.org/2000/svg">
 <defs>
  <style type="text/css">.ColorScheme-Text {
        color:#2e3440;
      }
      .ColorScheme-Highlight {
        color:#88c0d0;
      }</style>
 </defs>
 <path class="ColorScheme-Text" d="m3 3v16h8v-1h-7v-14h14v8h1v-9h-16zm2 2v1h12v-1h-12zm0 2v1h9v-1h-9zm0 3v1h12v-1h-12zm0 2v1h4v-1h-4zm0 3v1h9v-1h-9zm7 2v1h3v-1h-3z" fill="currentColor"/>
 <path class="ColorScheme-Highlight" d="m11 12v1h4 0.5c1.385 0 2.5 1.115 2.5 2.5 0 0.8187-0.39551 1.5351-1 1.9902v-1.4902h-1v1.9492 0.050781 0.95117 0.048828h1 2v-1h-1.0762c0.65797-0.6319 1.0762-1.5097 1.0762-2.5 0-1.939-1.561-3.5-3.5-3.5h-4.5z" fill="currentColor"/>
</svg>

<svg xmlns="http://www.w3.org/2000/svg" viewBox="0 0 22 22">
  <defs id="defs3051">
    <style type="text/css" id="current-color-scheme">
      .ColorScheme-Text {
        color:#2e3440;
      }
      .ColorScheme-Highlight {
        color:#88c0d0;
      }
      </style>
  </defs>
 <path 
     style="fill:currentColor;fill-opacity:1;stroke:none" 
     d="M 3 3 L 3 19 L 11 19 L 11 18 L 4 18 L 4 4 L 18 4 L 18 12 L 19 12 L 19 3 L 3 3 z M 5 5 L 5 6 L 17 6 L 17 5 L 5 5 z M 5 7 L 5 8 L 14 8 L 14 7 L 5 7 z M 5 10 L 5 11 L 17 11 L 17 10 L 5 10 z M 5 12 L 5 13 L 9 13 L 9 12 L 5 12 z M 5 15 L 5 16 L 14 16 L 14 15 L 5 15 z M 12 17 L 12 18 L 15 18 L 15 17 L 12 17 z "
     class="ColorScheme-Text"
     />
 <path 
     style="fill:currentColor;fill-opacity:1;stroke:none" 
     d="M 11 12 L 11 13 L 15 13 L 15.5 13 C 16.885 13 18 14.115 18 15.5 C 18 16.3187 17.60449 17.035134 17 17.490234 L 17 16 L 16 16 L 16 17.949219 L 16 18 L 16 18.951172 L 16 19 L 17 19 L 19 19 L 19 18 L 17.923828 18 C 18.581798 17.3681 19 16.4903 19 15.5 C 19 13.561 17.439 12 15.5 12 L 11 12 z "
     class="ColorScheme-Highlight"
     />
</svg>
